projects/icons/src/tuiIconBold.svg

<svg xmlns="http://www.w3.org/2000/svg" id="tuiIconBold" viewBox="0 0 24 24" fill="none">
<path d="M12.5778 10.4H7V12.4H12.5778V10.4ZM7 12.4H13.2V10.4H7V12.4ZM13.2 20H7.52381V22H13.2V20ZM7.46561 4H12.5778V2H7.46561V4ZM8 20.4762V3.46561H6V20.4762H8ZM7.52381 20C7.7868 20 8 20.2132 8 20.4762H6C6 21.3178 6.68223 22 7.52381 22V20ZM13.2 12.4C15.2987 12.4 17 14.1013 17 16.2H19C19 12.9967 16.4033 10.4 13.2 10.4V12.4ZM15.7778 7.2C15.7778 8.96731 14.3451 10.4 12.5778 10.4V12.4C15.4497 12.4 17.7778 10.0719 17.7778 7.2H15.7778ZM17.7778 7.2C17.7778 4.32812 15.4497 2 12.5778 2V4C14.3451 4 15.7778 5.43269 15.7778 7.2H17.7778ZM17 16.2C17 18.2987 15.2987 20 13.2 20V22C16.4033 22 19 19.4033 19 16.2H17ZM7.46561 2C6.65617 2 6 2.65618 6 3.46561H8C8 3.76074 7.76075 4 7.46561 4V2Z" fill="currentColor"/>
</svg>

<svg xmlns="http://www.w3.org/2000/svg" id="tuiIconBold" fill="none" viewBox="0 0 24 24"><path fill="currentColor" d="M12.578 10.4H7v2h5.578v-2zM7 12.4h6.2v-2H7v2zm6.2 7.6H7.524v2H13.2v-2zM7.466 4h5.112V2H7.466v2zM8 20.476V3.466H6v17.01h2zM7.524 20c.263 0 .476.213.476.476H6C6 21.318 6.682 22 7.524 22v-2zm5.676-7.6a3.8 3.8 0 013.8 3.8h2a5.8 5.8 0 00-5.8-5.8v2zm2.578-5.2a3.2 3.2 0 01-3.2 3.2v2a5.2 5.2 0 005.2-5.2h-2zm2 0a5.2 5.2 0 00-5.2-5.2v2a3.2 3.2 0 013.2 3.2h2zm-.778 9a3.8 3.8 0 01-3.8 3.8v2a5.8 5.8 0 005.8-5.8h-2zM7.466 2C6.656 2 6 2.656 6 3.466h2C8 3.76 7.76 4 7.466 4V2z"/></svg>
